icons/1_Primary/Tenable.svg

<svg xmlns="http://www.w3.org/2000/svg" viewBox="0 0 1024 1024">
   <circle cx="512" cy="512" r="512" style="fill:#041e42"/>
   <path d="m765.8 539.4-68.3-202.7c-4.9-14.6-17.4-25.6-32.6-28.5l-213.1-41.6c-14.9-2.9-30.3 2.3-40.4 13.6l-144.5 162c-10.3 11.5-13.6 27.8-8.7 42.4l68.3 202.7c4.9 14.7 17.4 25.6 32.6 28.5l213.1 41.6c2.7.5 5.4.8 8.2.8 12.2 0 24-5.2 32.2-14.4l144.5-162c10.3-11.5 13.6-27.7 8.7-42.4zm-82.5-197.9 44.9 133.3-95.4-150.5c-2.1-3.3-4.6-6.1-7.4-8.5l36.7 7.2c9.8 1.8 18 9 21.2 18.5zm-70.4 351.6-83.2 4.2 134.5-77.9c.2-.1.4-.2.6-.4l-32.4 61.5c-3.7 7.4-11.2 12.2-19.5 12.6zm-209-1.4-47-74.1c.9.6 1.8 1.2 2.8 1.8l135.6 78.5c.6.4 1.3.7 1.9 1l-72.3 3.7c-8.4.4-16.5-3.7-21-10.9zm7.2-360.7 83.2-4.2-134.5 77.9c-.2.1-.4.2-.6.4l32.4-61.5c3.7-7.4 11.2-12.2 19.5-12.6zm209 1.3 47 74.1c-.9-.6-1.8-1.2-2.8-1.8l-135.6-78.5c-.6-.4-1.3-.7-1.9-1l72.3-3.7c8.4-.4 16.5 3.8 21 10.9zm45.8 258.3c0 6.5-3.5 12.6-9.1 15.9L521.2 685c-5.7 3.3-12.7 3.3-18.4 0l-135.6-78.5c-5.6-3.3-9.1-9.3-9.1-15.9V433.5c0-6.5 3.5-12.6 9.1-15.9l135.6-78.5c2.8-1.7 6-2.5 9.2-2.5 3.2 0 6.4.8 9.2 2.5l135.6 78.5c5.6 3.3 9.1 9.3 9.1 15.9v157.1zm-322.3 6-39.4-62.1c-4.5-7.1-4.8-16.1-.9-23.5l39.7-75.5v155.1c.1 2 .3 4 .6 6zm336.8-169.2 39.4 62.1c4.5 7.1 4.8 16.1.9 23.5l-39.8 75.5v-155c0-2.1-.2-4.1-.5-6.1zM422.7 290.2c5.4-6 13.1-9.4 21-9.4 1.8 0 3.5.2 5.3.5l133 26-171.7 8.7c-4.8.2-9.3 1.4-13.6 3.3l26-29.1zm-144.6 162 95.6-107.1L290 504c-2.5 4.8-3.9 10-4.3 15.2l-13.3-39.4c-3.2-9.5-1-20.1 5.7-27.6zm62.6 230.3-44.9-133.3 95.4 150.5c2.1 3.2 4.6 6.1 7.4 8.5l-36.7-7.2c-9.8-1.8-17.9-8.9-21.2-18.5zm260.7 51.4c-6.6 7.4-16.7 10.8-26.4 8.9l-133-26 171.7-8.7c4.8-.2 9.3-1.4 13.6-3.3l-25.9 29.1zm144.5-162L650.3 679 734 520c2.5-4.8 3.9-10 4.3-15.2l13.3 39.4c3.2 9.6 1 20.2-5.7 27.7z" style="fill:#fff"/>
</svg>

<svg width="1024" height="1024" viewBox="0 0 1024 1024" fill="none" xmlns="http://www.w3.org/2000/svg">
<g clip-path="url(#clip0_2_3615)">
<path d="M512 1024C794.77 1024 1024 794.77 1024 512C1024 229.23 794.77 0 512 0C229.23 0 0 229.23 0 512C0 794.77 229.23 1024 512 1024Z" fill="#54688C"/>
<path d="M765.8 539.4L697.5 336.7C692.6 322.1 680.1 311.1 664.9 308.2L451.8 266.6C436.9 263.7 421.5 268.9 411.4 280.2L266.9 442.2C256.6 453.7 253.3 470 258.2 484.6L326.5 687.3C331.4 702 343.9 712.9 359.1 715.8L572.2 757.4C574.9 757.9 577.6 758.2 580.4 758.2C592.6 758.2 604.4 753 612.6 743.8L757.1 581.8C767.4 570.3 770.7 554.1 765.8 539.4ZM683.3 341.5L728.2 474.8L632.8 324.3C630.7 321 628.2 318.2 625.4 315.8L662.1 323C671.9 324.8 680.1 332 683.3 341.5ZM612.9 693.1L529.7 697.3L664.2 619.4C664.4 619.3 664.6 619.2 664.8 619L632.4 680.5C628.7 687.9 621.2 692.7 612.9 693.1ZM403.9 691.7L356.9 617.6C357.8 618.2 358.7 618.8 359.7 619.4L495.3 697.9C495.9 698.3 496.6 698.6 497.2 698.9L424.9 702.6C416.5 703 408.4 698.9 403.9 691.7ZM411.1 331L494.3 326.8L359.8 404.7C359.6 404.8 359.4 404.9 359.2 405.1L391.6 343.6C395.3 336.2 402.8 331.4 411.1 331ZM620.1 332.3L667.1 406.4C666.2 405.8 665.3 405.2 664.3 404.6L528.7 326.1C528.1 325.7 527.4 325.4 526.8 325.1L599.1 321.4C607.5 321 615.6 325.2 620.1 332.3ZM665.9 590.6C665.9 597.1 662.4 603.2 656.8 606.5L521.2 685C515.5 688.3 508.5 688.3 502.8 685L367.2 606.5C361.6 603.2 358.1 597.2 358.1 590.6V433.5C358.1 427 361.6 420.9 367.2 417.6L502.8 339.1C505.6 337.4 508.8 336.6 512 336.6C515.2 336.6 518.4 337.4 521.2 339.1L656.8 417.6C662.4 420.9 665.9 426.9 665.9 433.5V590.6ZM343.6 596.6L304.2 534.5C299.7 527.4 299.4 518.4 303.3 511L343 435.5V590.6C343.1 592.6 343.3 594.6 343.6 596.6ZM680.4 427.4L719.8 489.5C724.3 496.6 724.6 505.6 720.7 513L680.9 588.5V433.5C680.9 431.4 680.7 429.4 680.4 427.4ZM422.7 290.2C428.1 284.2 435.8 280.8 443.7 280.8C445.5 280.8 447.2 281 449 281.3L582 307.3L410.3 316C405.5 316.2 401 317.4 396.7 319.3L422.7 290.2ZM278.1 452.2L373.7 345.1L290 504C287.5 508.8 286.1 514 285.7 519.2L272.4 479.8C269.2 470.3 271.4 459.7 278.1 452.2ZM340.7 682.5L295.8 549.2L391.2 699.7C393.3 702.9 395.8 705.8 398.6 708.2L361.9 701C352.1 699.2 344 692.1 340.7 682.5ZM601.4 733.9C594.8 741.3 584.7 744.7 575 742.8L442 716.8L613.7 708.1C618.5 707.9 623 706.7 627.3 704.8L601.4 733.9ZM745.9 571.9L650.3 679L734 520C736.5 515.2 737.9 510 738.3 504.8L751.6 544.2C754.8 553.8 752.6 564.4 745.9 571.9Z" fill="white"/>
</g>
<defs>
<clipPath id="clip0_2_3615">
<rect width="1024" height="1024" fill="white"/>
</clipPath>
</defs>
</svg>
